fs/square_hint_32_regular.svg

<svg viewBox="0 0 32 32" fill="none" xmlns="http://www.w3.org/2000/svg" height="1em" width="1em">
  <path d="M14 3C13.4477 3 13 3.44772 13 4C13 4.55228 13.4477 5 14 5H18C18.5523 5 19 4.55228 19 4C19 3.44772 18.5523 3 18 3H14ZM14 27C13.4477 27 13 27.4477 13 28C13 28.5523 13.4477 29 14 29H18C18.5523 29 19 28.5523 19 28C19 27.4477 18.5523 27 18 27H14ZM4 19C3.44772 19 3 18.5523 3 18V14C3 13.4477 3.44772 13 4 13C4.55228 13 5 13.4477 5 14L5 18C5 18.5523 4.55229 19 4 19ZM27 18C27 18.5523 27.4477 19 28 19C28.5523 19 29 18.5523 29 18V14C29 13.4477 28.5523 13 28 13C27.4477 13 27 13.4477 27 14V18ZM9 4C9 3.44772 8.55228 3 8 3H7.75C5.12665 3 3 5.12665 3 7.75V8C3 8.55228 3.44772 9 4 9C4.55228 9 5 8.55228 5 8V7.75C5 6.23122 6.23122 5 7.75 5H8C8.55228 5 9 4.55228 9 4ZM8 29C8.55228 29 9 28.5523 9 28C9 27.4477 8.55228 27 8 27H7.75C6.23122 27 5 25.7688 5 24.25V24C5 23.4477 4.55228 23 4 23C3.44772 23 3 23.4477 3 24V24.25C3 26.8734 5.12665 29 7.75 29H8ZM23 4C23 3.44772 23.4477 3 24 3H24.25C26.8734 3 29 5.12665 29 7.75V8C29 8.55228 28.5523 9 28 9C27.4477 9 27 8.55228 27 8V7.75C27 6.23122 25.7688 5 24.25 5H24C23.4477 5 23 4.55228 23 4ZM24 29C23.4477 29 23 28.5523 23 28C23 27.4477 23.4477 27 24 27H24.25C25.7688 27 27 25.7688 27 24.25V24C27 23.4477 27.4477 23 28 23C28.5523 23 29 23.4477 29 24V24.25C29 26.8734 26.8734 29 24.25 29H24Z" fill="#212121"/>
</svg>

<svg viewBox="0 0 32 32" fill="none" xmlns="http://www.w3.org/2000/svg" height="1em" width="1em">
  <path d="M14 3a1 1 0 1 0 0 2h4a1 1 0 1 0 0-2h-4Zm0 24a1 1 0 1 0 0 2h4a1 1 0 1 0 0-2h-4ZM4 19a1 1 0 0 1-1-1v-4a1 1 0 1 1 2 0v4a1 1 0 0 1-1 1Zm23-1a1 1 0 1 0 2 0v-4a1 1 0 1 0-2 0v4ZM9 4a1 1 0 0 0-1-1h-.25A4.75 4.75 0 0 0 3 7.75V8a1 1 0 0 0 2 0v-.25A2.75 2.75 0 0 1 7.75 5H8a1 1 0 0 0 1-1ZM8 29a1 1 0 1 0 0-2h-.25A2.75 2.75 0 0 1 5 24.25V24a1 1 0 1 0-2 0v.25A4.75 4.75 0 0 0 7.75 29H8ZM23 4a1 1 0 0 1 1-1h.25A4.75 4.75 0 0 1 29 7.75V8a1 1 0 1 1-2 0v-.25A2.75 2.75 0 0 0 24.25 5H24a1 1 0 0 1-1-1Zm1 25a1 1 0 1 1 0-2h.25A2.75 2.75 0 0 0 27 24.25V24a1 1 0 1 1 2 0v.25A4.75 4.75 0 0 1 24.25 29H24Z" fill="#212121"/>
</svg>
